X:1
T:Black Water Side
M:3/4
L:1/4
K:F
 C/2C/2| D A A| A G A| D G3/2 D/2| E C2| A A A| B- G G| G F E| D2 D/2D/2|\
 D A A| A2F/2-F/2| E G E| D2 A| A ^G3/2 A/2| B G3/2 E/2| G F3/2 E/2|\
 D2 A| A A A/2A/2| d d d| d ^c d| ^c A A| A A A| d d d| e ^c d| ^c2 A|\
 A A A| d- d d| d ^c e| ^c A A/2A/2| A- A A| A d A| G F E| D2||
